src/lib/packages/icons/src/assets/filled/location-arrow-circle.svg

<svg width="24" height="24" viewBox="0 0 24 24" fill="none" xmlns="http://www.w3.org/2000/svg">
<path d="M12 2C6.477 2 2 6.477 2 12C2 17.523 6.477 22 12 22C17.523 22 22 17.523 22 12C22 6.477 17.523 2 12 2ZM15.947 8.76709L12.218 16.6919C12.007 17.1399 11.353 17.0881 11.216 16.6111L10.671 14.7029C10.481 14.0379 9.962 13.5191 9.297 13.3291L7.38898 12.7839C6.91198 12.6479 6.85898 11.993 7.30798 11.782L15.233 8.05298C15.688 7.83898 16.161 8.31209 15.947 8.76709Z" fill="currentColor"/>
</svg>

<svg xmlns="http://www.w3.org/2000/svg" width="24" height="24" fill="none"><path fill="currentColor" d="M12 2C6.477 2 2 6.477 2 12s4.477 10 10 10 10-4.477 10-10S17.523 2 12 2Zm3.947 6.767-3.729 7.925a.537.537 0 0 1-1.002-.08l-.545-1.91a2 2 0 0 0-1.374-1.373l-1.908-.545a.537.537 0 0 1-.081-1.002l7.925-3.729a.537.537 0 0 1 .714.714Z"/></svg>
